packages/icons/src/chat-bubble.svg

<svg width="15" height="15" viewBox="0 0 15 15" fill="none" xmlns="http://www.w3.org/2000/svg">
  <path
    fill-rule="evenodd"
    clip-rule="evenodd"
    d="M12.5 3L2.5 3.00002C1.67157 3.00002 1 3.6716 1 4.50002V9.50003C1 10.3285 1.67157 11 2.5 11H7.50003C7.63264 11 7.75982 11.0527 7.85358 11.1465L10 13.2929V11.5C10 11.2239 10.2239 11 10.5 11H12.5C13.3284 11 14 10.3285 14 9.50003V4.5C14 3.67157 13.3284 3 12.5 3ZM2.49999 2.00002L12.5 2C13.8807 2 15 3.11929 15 4.5V9.50003C15 10.8807 13.8807 12 12.5 12H11V14.5C11 14.7022 10.8782 14.8845 10.6913 14.9619C10.5045 15.0393 10.2894 14.9965 10.1464 14.8536L7.29292 12H2.5C1.11929 12 0 10.8807 0 9.50003V4.50002C0 3.11931 1.11928 2.00003 2.49999 2.00002Z"
    fill="currentColor"
  />
</svg>

<svg xmlns="http://www.w3.org/2000/svg" width="15" height="15" fill="none"><path fill="currentColor" fill-rule="evenodd" d="M12.5 3h-10A1.5 1.5 0 0 0 1 4.5v5A1.5 1.5 0 0 0 2.5 11h5a.5.5 0 0 1 .354.146L10 13.294V11.5a.5.5 0 0 1 .5-.5h2A1.5 1.5 0 0 0 14 9.5v-5A1.5 1.5 0 0 0 12.5 3m-10-1h10A2.5 2.5 0 0 1 15 4.5v5a2.5 2.5 0 0 1-2.5 2.5H11v2.5a.5.5 0 0 1-.854.354L7.293 12H2.5A2.5 2.5 0 0 1 0 9.5v-5A2.5 2.5 0 0 1 2.5 2" clip-rule="evenodd"/></svg>
